X:1
T:Title
T:Libertango Part 1
T:Astor Piazzolla
C:Composer
%%score ( 1 2 )
L:1/8
M:4/4
K:C
V:1 treble nm="Piano" snm="Pno."
V:2 treble 
V:1
 z x x2 x4 | z8 | z8 | z8 | z8 | z8 | z8 | z8 | z8 | z8 | z8 | z8 | z8 | z8 | z8 | z8 |: %16
 z efe fec'a | z efe c'aef | z ^ded edb^f | z ^ded b^fde | z ded edbf | z ded bfde | z cdc dcae | %23
 z cdc aecd | z cdc dcae | z cdc aecd | z cdc dca_e | z cdc a_ece | z BcB cB^gd | z BcB ^gdBc | %30
 z BcB cB^gd | z BcB ^gd a/b/c'/d'/ | e'8- | e'2 z e d' c'2 b/a/ | b8- | b8 | d'/c'/d'- d'2- d'4- | %37
 d'2 z e c' b2 a/^g/ | a8- | a4 z eab | c'8- | c'2 z e c' b2 c'/a/ | b8- | b8 | b/a/b- b2- b4- | %45
 b4 z c'2 b/a/ | b/a/b- b2- b4- | b6 c/d/e/f/ || g6- g_B/A/ | ^GAeg f e2 d/e/ | f8- | f4- f^cde | %52
 f/e/f- f2- f3 ^F/G/ | _AG^FG g f2 e/d/ | e4- e f2 e/d/ | e/e/ e2 e- e4 | eabe ac'ea | %57
 d'eae' d'/c'/ b2 a | b8- | b8 | dfad fbdf | c'd^gd' c'/b/ a2 g | a8- | a8 | eabe ac'ea | %65
 d'eae' d'/c'/ b2 a | b8- | b8 | dfad fbdf | c'd^gd' c'/b/ a2 g | a8- | a8 :| z efe fec'a | %73
 z efe c'aef | z ^ded edb^f | z ^ded b^fde | z ded edbf | z ded bfde | z cdc dcae | z cdc becd | %80
 a3 e'- e'2 ab | c'/b/ a2 e'- e'4 | a3 _e'- e'2 ab | c'/b/ a2 _e'- e'4 | a3 d'- d'2 ab | %85
 c'/b/ a2 d'- d'4 | a2 ea- ae a2 | e a2 e a2 ea | a3 e'- e'2 ab | c'/b/ a2 e'- e'4 | %90
 a3 _e'- e'2 ab | c'/b/ a2 _e'- e'4 | a3 d'- d'2 ab | c'/b/ a2 d'- d'4 | a2 dg gc f2 | %95
 B e2 A d2 AA |] %96
V:2
 z EF.E FEcA | z EF.E cAEF | z ^DE.D EDB^F | z ^DE.D B^FDE | z DED EDBF | z DED BFDE | z CDC DCAE | %7
 z CDC AECD | z CDC DCAE | z CDC AECD | z CDC DCA_E | z CDC A_ECE | z B,CB, CB,^GD | %13
 z B,CB, ^GDB,C | z B,CB, CB,^GD | z B,CB, ^GDB,C |: x8 | x8 | x8 | x8 | x8 | x8 | x8 | x8 | x8 | %25
 x8 | x8 | x8 | x8 | x8 | x8 | x8 | x8 | x8 | x8 | x8 | x8 | x8 | x8 | x8 | x8 | x8 | x8 | x8 | %44
 x8 | x8 | x8 | x8 || x8 | x8 | x8 | x8 | x8 | x8 | x8 | x8 | x8 | x8 | x8 | x8 | x8 | x8 | x8 | %63
 x8 | x8 | x8 | x8 | x8 | x8 | x8 | x8 | x8 :| x8 | x8 | x8 | x8 | x8 | x8 | x8 | x8 | x8 | x8 | %82
 x8 | x8 | x8 | x8 | x8 | x8 | x8 | x8 | x8 | x8 | x8 | x8 | x8 | x8 |] %96

